X: 1
T:NIGGER IN DE WOOD PILE -- JIG.
R:reel
B:Coles pg 82.2
Z:John B. Walsh, <walsh:mat:h.ubc.ca> 5/20/02
M:2/4
L:1/16
Q:1/4=95
Z: Contributed 20020529094014 by John B. Walsh walsh:mat:h.ubc.ca
K:D
{^G}uA2|z u"4"AFD E2D2|z udfd "4"edz {c}ud|z uAFD vE2vDF|G>BA>F D2 {^G}A2|
z uAFD E2D2|z udfd ed z {c}ud|z uAFD vE2vDF|G>.BA>.F D2:|
|: ((3ABc)|vd2e2f2g2|fB~B2 fB~B2|d2e2f2^g2|a>ef>d c>"4"eA2|
|vd2e2f2g2|fB~B2 fB~B2|(a>.b)(g>.a) (f>.g)(e>.c) |1 (d>.f)(e>.c):|2 (d>.B)(A>.G) FD|]

